X:945
T:Porthole of Kelp, The
R:reel
C:Bobby Casey
Z:transcribed by Dave Marshall
M:C|
K:Ddor
|: F2DE FEDE | FEFG ECC2 | F2DE FGAG | FDEC A,DD2 |
F2DE FGAB | cAGF ECCE | DEFG AddB | cAGE EDD2 :|
|: d2de dcAG | FEFG ECCE | Adde dcAG | Addc d3e |
fdec dcAB | cAGF ECCE | DEFG AddB | cAGE EDD2:|
